X:407
T: Der Rwelmann (4-100), S. 136
N: P0677
O: Lothringen
S: PINCK, Louis: Verklingende Weisen Bd 4, Kassel 1939]
R: ???]
M: 2/2
L: 1/8
K: G
D2 | GGG2G2G2 | G2E2D2
D2 | E2E2E2E2 | D4B,2
DD | G4G2G2 | G4F2
E2 | E2D2E2F2 | G4G2
DD | G4G2G2 | G4F2
F2 | F2D2E2F2 | G4G2
D2 | D2G2G2G2 | G2E2D2
D2 | G2D2GGD2 | G2B2d2
c2 | B2B2A2A2 | G4z2
G2 | F2G2AAF2 | G2B2d2 |  |  |  |  |  |  |  |  |  |  |  |  |  |  |  |  |  |  |  |  |  |  |  |  |  |  |  |  |  |  |  |  |  |  |  |  |  |  |  |  |  |  | 
g2 | F2A2ccF2 | GGB2d2z2 |  |  |  |  |  |  |  |  |  |  |  |  |  |  |  |  |  |  |  |  |  |  |  |  |  |  |  |  |  |  |  |  |  |  |  |  |  |  |  |  | 
g4e4 | d4z2 |  |  |  |  |  |  |  |  |  |  |  |  |  |  |  |  |  |  |  |  |  |  |  |  |  |  |  |  |  |  |  |  |  |  |  |  |  |  |  |  |  |  |  |  |  |  |  |  |  |  |  | 
c2 | B2B2A2A2 | G4z2

